X: 1
T: Round
C: J.S.Bach (attrib)
M: 2/4
L: 1/16
K: G
D2 | G2G2 D2D2 | E2 E4 B,2 | C2A,2 D2F2 | G2 G,4 D2 | G2 G,4 B,2 | C2A,2 D2F2 | G2 G,4 |]
D2 | B3c  B3A  | A2 G4 G2  | A2A2  F2F2 | GFGA B4   | GFGA  B2G2 | A2A2  F2F2 | G6 |]
D2 | d3e  d3c  | c2 B4 B2  | c2c2  A2A2 | BABc d4   | BABc  d2B2 | c2c2  A2A2 | G6 |]
